icons/svg/draw-text.svg

<svg width="24" height="24" viewBox="0 0 24 24" fill="none" xmlns="http://www.w3.org/2000/svg">
<path d="M5.71875 16.25L7.63839 11.8464M7.63839 11.8464H14.5491M7.63839 11.8464L10.5798 5.09878C10.7825 4.63374 11.405 4.63374 11.6077 5.09878L14.5491 11.8464M14.5491 11.8464L14.8864 12.62" stroke="currentColor" stroke-width="1.5" stroke-linecap="round" stroke-linejoin="round"/>
<path d="M15.6797 20.9359C16.1411 20.8305 16.5635 20.5971 16.8984 20.2626L22.3532 14.8129C23.3402 13.8268 23.3407 12.2271 22.3542 11.2404C21.3679 10.2539 19.7686 10.2538 18.7822 11.2402L13.3302 16.6922C12.9947 17.0277 12.7608 17.4512 12.6555 17.9138L12.1196 20.2684C11.9549 20.9918 12.6026 21.6389 13.3259 21.4737L15.6797 20.9359Z" fill="currentColor"/>
<path d="M3.75 19.6874L4.31798 19.9213C4.95605 20.184 5.68225 20.0962 6.27438 19.7419C6.96311 19.3297 7.92262 18.8255 8.75749 18.6402C9.33996 18.5109 10.0004 18.8397 9.84811 19.4166C9.67863 20.0587 9.15885 20.8135 9.65627 21.162C10.4063 21.6874 14.6875 20.3437 14.6875 20.3437" stroke="currentColor" stroke-width="1.5" stroke-linecap="round" stroke-linejoin="round"/>
</svg>

<svg xmlns="http://www.w3.org/2000/svg" width="24" height="24" fill="none" viewBox="0 0 24 24"><path stroke="currentColor" stroke-linecap="round" stroke-linejoin="round" stroke-width="1.5" d="m5.719 16.25 1.92-4.404m0 0h6.91m-6.91 0 2.94-6.747a.553.553 0 0 1 1.029 0l2.941 6.747m0 0 .337.774"/><path fill="currentColor" d="M15.68 20.936a2.5 2.5 0 0 0 1.218-.673l5.455-5.45a2.526 2.526 0 1 0-3.57-3.573l-5.453 5.452c-.335.336-.57.76-.675 1.222l-.535 2.354a1.007 1.007 0 0 0 1.206 1.206z"/><path stroke="currentColor" stroke-linecap="round" stroke-linejoin="round" stroke-width="1.5" d="m3.75 19.687.568.234c.638.263 1.364.175 1.956-.18.69-.411 1.649-.915 2.483-1.1.583-.13 1.243.199 1.091.776-.17.642-.69 1.396-.192 1.745.75.525 5.031-.818 5.031-.818"/></svg>
